X:1
T: The Redhaired Hag
C:
R:Jig
Q:180
K:A
M:6/8
L:1/16
|:f2|e2c2A2 a2e2A2|c2d2e2 =g2f2g2|B2=G2G2 d2G2G2|B2c2d2 d4f2|
e2c2A2 a2e2A2|c2d2e2 f2g2a2|d2e2f2 =g2d2B2|e2c2A2 A4f2|
a2g2f2 e2c2A2|c2d2e2 f2g2a2|B2=G2B2 d2B2G2|B2c2d2 d4e2|
a2g2f2 e2c2A2|c2d2e2 a6|d2e2f2 =g2d2B2|1e2c2A2 A4e2:|2e2c2A2 A4||
